X: 120186
T: Larry Redican's Bow
S: T. DeMarco
Z: B. Black
R: reel
M: 4/4
L: 1/8
K: D
D2 FD A,DFD|E2 GE B,EGE|Ddcd BAFD|EDEF EDB,C |
D2 FD A,DFD|E2 GE B,EGE|Ddcd BAFD |1 EDCE DA,B,C :|2\
EDCE DEFA || 
B2 BA B2 Bc|d2 cd BAFG|A2 (3cBA eAcA|ABce afec |
B2 BA B2 Bc|d2 cd BAFE|DEFA dfec |1 dBAF EFGA :|2\
dBAF E4 ||
